src/images/logo.svg

<svg width="80" height="50" viewBox="0 0 80 50" fill="none" xmlns="http://www.w3.org/2000/svg">
<path d="M43.2709 0.000137329C42.8031 0.691325 42.3135 1.35986 41.8165 2.02173C41.3212 2.68491 40.8133 3.33577 40.3026 3.98342C39.5729 4.90244 38.8315 5.81028 38.0781 6.70608C37.8456 6.98253 37.6125 7.25827 37.3772 7.53225C37.3044 7.61757 37.2311 7.70317 37.1578 7.7885C37.0069 7.96409 36.8559 8.13926 36.7044 8.31412C34.7049 10.6213 32.6391 12.8616 30.5242 15.0529C28.9307 16.7017 27.3085 18.3213 25.6512 19.9057H25.6507C25.0592 20.4713 24.4632 21.0321 23.8623 21.5883C23.8499 21.5996 23.8375 21.6112 23.8247 21.6227C23.7164 21.7231 23.6083 21.8233 23.4995 21.9228C22.2939 23.0331 21.065 24.12 19.8138 25.1834C19.1855 25.7131 18.5547 26.2397 17.9116 26.7542C17.2697 27.2698 16.6205 27.7779 15.949 28.2639C16.4159 27.572 16.9054 26.9029 17.4016 26.2409C17.897 25.5774 18.4044 24.9263 18.9151 24.2783C19.6893 23.3032 20.4763 22.3406 21.2766 21.392C21.5362 21.0842 21.797 20.7778 22.0594 20.4729C22.1291 20.3915 22.1992 20.3103 22.2697 20.2292C24.3451 17.8227 26.4928 15.4895 28.6955 13.2112C30.8502 10.9858 33.0556 8.81143 35.3302 6.70608C35.4608 6.5852 35.5918 6.46402 35.7228 6.34386C36.0483 6.04434 36.3754 5.74628 36.7042 5.45024C37.5934 4.64862 38.4948 3.85992 39.4084 3.08297C40.036 2.55315 40.667 2.02625 41.3098 1.51167C41.9513 0.99549 42.6 0.486566 43.2709 0.000137329Z" fill="black"/>
<path d="M30.1376 0C30.8084 0.486719 31.4569 0.995356 32.0987 1.51139C32.7415 2.02597 33.3724 2.55287 34.0001 3.08269C35.2513 4.14682 36.4799 5.23344 37.6854 6.34372C40.0992 8.5611 42.4341 10.8576 44.7128 13.2112C46.9901 15.5661 49.2084 17.9804 51.3491 20.4728C52.4203 21.718 53.4683 22.9865 54.4935 24.2782C55.0041 24.9263 55.5115 25.5773 56.0068 26.2406C56.5033 26.9028 56.9925 27.572 57.4594 28.2638C56.7879 27.7779 56.139 27.2695 55.4969 26.754C54.8538 26.2396 54.2228 25.713 53.595 25.1836C52.3434 24.1196 51.1144 23.0331 49.9089 21.923C47.4961 19.7046 45.1607 17.4084 42.8844 15.0526C40.6093 12.6956 38.3909 10.2812 36.2508 7.78822C35.1794 6.54284 34.1316 5.27439 33.1059 3.983C32.5951 3.33549 32.0875 2.68478 31.592 2.02146C31.0949 1.35987 30.6053 0.691187 30.1376 0Z" fill="black"/>
<path d="M38.9997 15.4051C38.9997 16.8156 37.8798 17.9592 36.4972 17.9592C35.1159 17.9592 33.9963 16.8156 33.9963 15.4051C33.9963 13.9954 35.1159 12.8518 36.4972 12.8518C37.8798 12.8518 38.9997 13.9953 38.9997 15.4051Z" fill="black"/>
<path d="M49.5572 20.1374L44.9179 16.0498V8.27113H49.5505L49.5572 20.1374Z" fill="black"/>
<path d="M0 46.9211C0.141754 46.4882 0.311106 46.0645 0.488121 45.6439C0.665135 45.2234 0.855916 44.8082 1.05497 44.3969C1.45407 43.5748 1.89131 42.7702 2.35993 41.9824C3.2996 40.4084 4.36709 38.9034 5.55316 37.4884C6.73923 36.0734 8.04517 34.7486 9.46285 33.5418C10.1711 32.9378 10.9089 32.3661 11.6709 31.8248C12.435 31.2871 13.2221 30.7781 14.0357 30.3115C15.6594 29.3728 17.3797 28.5903 19.1606 27.9767C20.0519 27.6727 20.9569 27.4056 21.8738 27.1888C22.3319 27.0791 22.7928 26.9804 23.2552 26.8913C23.7181 26.8042 24.1827 26.728 24.6489 26.6617C26.5132 26.3957 28.3985 26.3078 30.2713 26.3721C31.2079 26.4039 32.1413 26.4786 33.0693 26.5832C33.9972 26.6906 34.9191 26.8348 35.8333 27.0074C36.7474 27.183 37.6533 27.3908 38.5507 27.6241C38.9541 27.7306 39.3755 27.8349 39.7926 27.9347C40.2104 28.0347 40.6294 28.1289 41.0485 28.2206C41.8862 28.4063 42.7278 28.569 43.5706 28.7187C44.4133 28.8691 45.259 28.995 46.1057 29.1081C49.4927 29.5513 52.9119 29.6756 56.3065 29.3829C57.1546 29.3075 58.0017 29.2105 58.8447 29.0808C59.6885 28.955 60.5279 28.7971 61.3634 28.614C63.034 28.2454 64.6855 27.7597 66.3031 27.1518C67.9208 26.5439 69.5051 25.8141 71.0387 24.9589C72.5735 24.1049 74.0548 23.1248 75.4806 22.027C74.3696 23.4564 73.0747 24.7504 71.6686 25.9155C70.2608 27.0794 68.7342 28.1104 67.1241 28.9978C63.9025 30.7745 60.3519 31.9696 56.7158 32.6022C55.8065 32.7631 54.8917 32.8853 53.9739 32.9801C53.5148 33.0274 53.0549 33.0638 52.595 33.095C52.135 33.1256 51.6745 33.1503 51.2137 33.1642C50.2927 33.1934 49.371 33.1965 48.451 33.1666C47.9912 33.152 47.5313 33.1327 47.0724 33.1045C46.6133 33.076 46.1548 33.0409 45.6971 33.0001C44.7816 32.9204 43.8699 32.8077 42.9618 32.6776C42.0537 32.5466 41.1505 32.3874 40.2517 32.2117C39.8024 32.1232 39.3546 32.0268 38.9083 31.9273C38.4612 31.8267 38.0198 31.7247 37.5636 31.6103C36.7429 31.4006 35.9172 31.2171 35.0892 31.0595C34.2617 30.8985 33.4305 30.7676 32.5981 30.6634C31.7658 30.5564 30.9317 30.4829 30.0975 30.4362C28.429 30.3427 26.7598 30.3749 25.1042 30.5402C24.6902 30.5813 24.2773 30.6321 23.8657 30.6913C23.4538 30.7491 23.043 30.8157 22.6338 30.892C21.816 31.0461 21.0022 31.2287 20.1982 31.452C18.5881 31.8924 17.0114 32.4774 15.4811 33.19C13.9512 33.904 12.4701 34.7498 11.0469 35.7074C9.62438 36.6657 8.26101 37.7375 6.96247 38.9028C5.66365 40.0681 4.42879 41.326 3.26376 42.6632C2.68054 43.3315 2.11566 44.0203 1.56926 44.7282C1.02414 45.4373 0.493651 46.1621 0 46.9211Z" fill="#FFCC29"/>
<path d="M0.577118 48.6222C0.757972 48.2047 0.965099 47.7989 1.17965 47.397C1.39406 46.9951 1.62198 46.6002 1.85758 46.2094C2.32961 45.4285 2.83862 44.6693 3.3772 43.9295C4.45606 42.4513 5.65596 41.0543 6.96601 39.7578C8.27606 38.4615 9.69718 37.2663 11.2185 36.1997C11.9789 35.6651 12.7653 35.1659 13.5734 34.6995C14.3832 34.2368 15.2133 33.8047 16.0657 33.4174C17.768 32.637 19.5523 32.0211 21.3814 31.5792C22.2965 31.3611 23.2217 31.1813 24.1545 31.0522C24.6207 30.9867 25.0883 30.9319 25.5571 30.8875C26.0258 30.8445 26.4958 30.8127 26.9656 30.791C28.8462 30.7033 30.7311 30.7944 32.5899 31.0361C33.5195 31.1568 34.4423 31.3198 35.3568 31.5122C36.2707 31.7071 37.1754 31.9385 38.0701 32.197C38.9643 32.4588 39.8474 32.7513 40.7196 33.069C41.1115 33.2132 41.5217 33.3571 41.9279 33.4962C42.3347 33.6351 42.7431 33.7686 43.1522 33.8997C43.9692 34.1642 44.7923 34.4062 45.6179 34.6352C46.4436 34.8651 47.274 35.0706 48.1069 35.2634C51.4388 36.026 54.8316 36.4746 58.2381 36.505C59.0895 36.5108 59.9418 36.4948 60.793 36.4456C61.6444 36.4006 62.4947 36.3229 63.3434 36.2199C65.0405 36.0115 66.7289 35.6847 68.3949 35.233C70.0609 34.7812 71.7048 34.205 73.3099 33.4991C74.9158 32.7946 76.4798 31.9595 77.9995 31.0017C76.763 32.3193 75.3558 33.4846 73.8499 34.5114C72.3417 35.5364 70.7281 36.4181 69.044 37.1491C65.6744 38.6121 62.0302 39.4651 58.3525 39.7496C57.4324 39.8237 56.51 39.8584 55.5879 39.8656C55.1265 39.8693 54.6653 39.8619 54.2045 39.8494C53.7437 39.8359 53.283 39.8167 52.823 39.787C51.9033 39.7284 50.9852 39.6442 50.0721 39.5269C49.6153 39.4687 49.1594 39.4058 48.7048 39.3341C48.2507 39.2621 47.7973 39.1839 47.3451 39.0997C46.4407 38.9336 45.5434 38.7349 44.6509 38.5193C43.7587 38.3025 42.8743 38.0584 41.995 37.7979C41.5557 37.667 41.1192 37.5287 40.6834 37.3872C40.2475 37.2446 39.8173 37.1009 39.3735 36.944C38.5752 36.657 37.7701 36.3962 36.96 36.1609C36.1506 35.922 35.3349 35.7127 34.5158 35.5296C33.6971 35.344 32.8728 35.1919 32.0466 35.0659C30.3939 34.8146 28.7292 34.6883 27.0658 34.6955C26.6498 34.6972 26.2342 34.7085 25.8189 34.7284C25.4031 34.7468 24.9882 34.774 24.5739 34.8111C23.7456 34.887 22.9188 34.9914 22.0977 35.1375C20.4542 35.4234 18.8312 35.8564 17.2426 36.4203C15.6543 36.9858 14.1027 37.687 12.5986 38.5056C11.0946 39.3248 9.63969 40.2625 8.24063 41.2993C6.84143 42.3364 5.49712 43.4715 4.21522 44.6927C3.5737 45.3026 2.94825 45.9347 2.34 46.5878C1.73204 47.2422 1.13802 47.9133 0.577118 48.6222Z" fill="#C10023"/>
<path d="M1.15576 50C1.37998 49.6052 1.62955 49.2248 1.88562 48.8492C2.14197 48.4734 2.41066 48.1062 2.68663 47.7443C3.23943 47.0209 3.82648 46.3225 4.4407 45.6471C5.67141 44.2981 7.0136 43.043 8.45431 41.9004C9.89489 40.7577 11.4353 39.7281 13.0617 38.8371C13.8747 38.3909 14.7098 37.9821 15.5629 37.6086C16.4174 37.2387 17.2889 36.9016 18.1775 36.6115C19.9531 36.0254 21.7927 35.6121 23.6581 35.3765C24.591 35.2619 25.5301 35.186 26.4709 35.1618C26.9414 35.1484 27.4122 35.1463 27.8827 35.1541C28.3532 35.1637 28.8237 35.1844 29.2932 35.2153C31.1718 35.3374 33.0359 35.6382 34.858 36.0857C35.769 36.3091 36.6686 36.574 37.5571 36.8669C38.4449 37.1626 39.3193 37.4932 40.181 37.8498C41.0418 38.2095 41.8884 38.5989 42.7214 39.0119C43.0952 39.1989 43.4879 39.3874 43.8766 39.5708C44.2662 39.7544 44.658 39.9327 45.0507 40.1085C45.8347 40.4624 46.6267 40.7947 47.4229 41.1141C48.2191 41.4347 49.0227 41.7315 49.8297 42.0163C53.0608 43.1453 56.385 43.9691 59.7681 44.3792C60.6134 44.4795 61.4623 44.5583 62.3137 44.6043C63.1648 44.6545 64.0183 44.6719 64.873 44.6641C66.5821 44.6458 68.2954 44.5094 70.0001 44.246C71.704 43.9825 73.4 43.5924 75.0706 43.0699C76.7424 42.5483 78.3867 41.8925 80 41.1098C78.6297 42.2816 77.1065 43.2835 75.4994 44.136C73.8908 44.9868 72.1926 45.6838 70.4404 46.2227C66.9345 47.3017 63.2211 47.7435 59.5347 47.6165C58.6125 47.5876 57.6919 47.5194 56.7741 47.4241C56.315 47.3762 55.8577 47.3173 55.4009 47.2537C54.9441 47.1891 54.4883 47.1187 54.0344 47.0379C53.1263 46.8771 52.2229 46.6909 51.3277 46.4727C50.88 46.364 50.4333 46.251 49.9893 46.1291C49.5452 46.0067 49.1032 45.8783 48.6629 45.7448C47.7816 45.4787 46.9108 45.181 46.0469 44.8673C45.1833 44.5524 44.3299 44.2112 43.484 43.8545C43.0613 43.6754 42.6421 43.4891 42.2242 43.3C41.806 43.1098 41.3938 42.9191 40.9696 42.7136C40.2068 42.3393 39.4342 41.9905 38.6542 41.666C37.8752 41.3385 37.0871 41.0398 36.2921 40.7666C35.4982 40.4908 34.6955 40.248 33.8876 40.0307C32.2717 39.5967 30.6299 39.2857 28.9754 39.1075C28.5619 39.0629 28.1476 39.0281 27.7328 39.0015C27.3179 38.9735 26.9024 38.9545 26.4864 38.9451C25.6549 38.9281 24.8221 38.9397 23.9901 38.9935C22.3259 39.0944 20.6665 39.3441 19.0269 39.728C17.388 40.1134 15.7702 40.6376 14.1875 41.2835C12.6052 41.9304 11.0584 42.7004 9.55684 43.5751C8.05513 44.45 6.59758 45.4287 5.19284 46.4995C4.49004 47.0344 3.80066 47.593 3.12616 48.1747C2.45137 48.7569 1.78889 49.358 1.15576 50Z" fill="#C47D38"/>
</svg>

<svg xmlns="http://www.w3.org/2000/svg" width="80" height="50" fill="none"><path fill="#000" d="M43.27 0c-.467.691-.957 1.36-1.454 2.022a94 94 0 0 1-1.513 1.961 125 125 0 0 1-3.599 4.331c-2 2.307-4.065 4.548-6.18 6.739a174 174 0 0 1-4.873 4.853q-.888.848-1.789 1.682l-.037.035-.325.3a124 124 0 0 1-3.686 3.26c-.628.53-1.26 1.057-1.902 1.571a49 49 0 0 1-1.963 1.51c.467-.692.956-1.361 1.453-2.023a95 95 0 0 1 1.513-1.963 125 125 0 0 1 3.355-4.049 167 167 0 0 1 6.426-7.018 170 170 0 0 1 7.027-6.867 123 123 0 0 1 3.685-3.261 95 95 0 0 1 1.902-1.571A49 49 0 0 1 43.27 0"/><path fill="#000" d="M30.138 0c.67.487 1.319.995 1.96 1.511A95 95 0 0 1 34 3.083a125 125 0 0 1 3.685 3.26 168 168 0 0 1 7.028 6.868 167 167 0 0 1 6.636 7.262 125 125 0 0 1 3.145 3.805c.51.648 1.017 1.3 1.513 1.963.496.662.986 1.331 1.452 2.023a49 49 0 0 1-1.962-1.51 95 95 0 0 1-1.902-1.57 124 124 0 0 1-3.686-3.261 166 166 0 0 1-7.025-6.87 169 169 0 0 1-6.633-7.265 126 126 0 0 1-3.145-3.805 94 94 0 0 1-1.514-1.962A50 50 0 0 1 30.138 0M39 15.405c0 1.41-1.12 2.554-2.503 2.554-1.381 0-2.5-1.143-2.5-2.554s1.119-2.553 2.5-2.553c1.383 0 2.503 1.143 2.503 2.553"/><path fill="#000" d="m49.557 20.137-4.64-4.087V8.27h4.633z"/><path fill="#FFCC29" d="M0 46.921c.142-.433.311-.856.488-1.277q.267-.63.567-1.247.6-1.233 1.305-2.415a34.6 34.6 0 0 1 3.193-4.494 33 33 0 0 1 3.91-3.946 30.367 30.367 0 0 1 4.573-3.23 29.4 29.4 0 0 1 10.613-3.65 32 32 0 0 1 5.622-.29c.937.032 1.87.107 2.798.211a39 39 0 0 1 5.482 1.041 56 56 0 0 0 2.497.597 61 61 0 0 0 5.058.887c3.387.443 6.806.568 10.2.275a40 40 0 0 0 5.057-.769 36 36 0 0 0 4.94-1.462 35 35 0 0 0 4.736-2.193 36 36 0 0 0 4.442-2.932c-1.111 1.43-2.406 2.723-3.812 3.889a29.4 29.4 0 0 1-4.545 3.082c-3.221 1.776-6.772 2.972-10.408 3.604a38 38 0 0 1-4.121.493q-.69.046-1.381.07a43 43 0 0 1-2.763.002A47 47 0 0 1 45.697 33a50 50 0 0 1-2.735-.322 55 55 0 0 1-5.398-1.068q-1.232-.315-2.475-.55a37 37 0 0 0-4.991-.624 32 32 0 0 0-4.994.104q-.621.062-1.238.151-.618.087-1.232.201a29.819 29.819 0 0 0-7.153 2.298 33 33 0 0 0-4.434 2.517 37.5 37.5 0 0 0-4.085 3.196 44.399 44.399 0 0 0-5.393 5.825A34 34 0 0 0 0 46.921"/><path fill="#C10023" d="M.577 48.622c.181-.417.388-.823.603-1.225q.323-.602.678-1.188.709-1.17 1.52-2.28a34.4 34.4 0 0 1 3.588-4.171 33 33 0 0 1 4.253-3.558 30.275 30.275 0 0 1 4.847-2.782 29.3 29.3 0 0 1 10.9-2.627c1.88-.088 3.765.003 5.624.245.93.12 1.852.284 2.767.476a39 39 0 0 1 5.363 1.557 57 57 0 0 0 2.432.83 61 61 0 0 0 4.955 1.364c3.332.763 6.725 1.212 10.131 1.242a40 40 0 0 0 5.105-.285 36 36 0 0 0 5.052-.987 35 35 0 0 0 4.915-1.734A36 36 0 0 0 78 31.002c-1.237 1.317-2.644 2.483-4.15 3.51a29.3 29.3 0 0 1-4.806 2.637c-3.37 1.463-7.014 2.316-10.691 2.6a38 38 0 0 1-4.148.1q-.692-.018-1.382-.062a43 43 0 0 1-2.75-.26 47 47 0 0 1-2.728-.427 50 50 0 0 1-2.694-.58 55 55 0 0 1-5.278-1.576 41 41 0 0 0-2.413-.783 38 38 0 0 0-4.913-1.095 32 32 0 0 0-4.981-.37 29 29 0 0 0-1.247.032q-.623.028-1.245.083a29.5 29.5 0 0 0-7.331 1.61 32.6 32.6 0 0 0-4.644 2.085 37 37 0 0 0-4.358 2.793 43 43 0 0 0-4.026 3.394 44 44 0 0 0-1.875 1.895 34 34 0 0 0-1.763 2.034"/><path fill="#C47D38" d="M1.156 50c.224-.395.474-.775.73-1.15q.386-.564.8-1.106a32 32 0 0 1 1.755-2.097A34 34 0 0 1 8.454 41.9a32.7 32.7 0 0 1 4.608-3.063 30.117 30.117 0 0 1 5.116-2.226 29.2 29.2 0 0 1 11.115-1.396c1.879.122 3.743.423 5.565.87.911.224 1.81.489 2.7.782a39.6 39.6 0 0 1 5.163 2.145 56 56 0 0 0 2.33 1.096 61 61 0 0 0 4.779 1.908c3.23 1.13 6.555 1.953 9.938 2.363a40 40 0 0 0 5.105.285A36 36 0 0 0 70 44.246c1.704-.264 3.4-.654 5.07-1.176A35.6 35.6 0 0 0 80 41.11c-1.37 1.172-2.894 2.173-4.5 3.026a29 29 0 0 1-5.06 2.087c-3.505 1.079-7.219 1.52-10.905 1.394a38 38 0 0 1-4.134-.363 43.336 43.336 0 0 1-4.073-.781 46 46 0 0 1-2.665-.728 50 50 0 0 1-2.616-.878 56 56 0 0 1-5.077-2.153 41 41 0 0 0-2.316-1.048 38 38 0 0 0-4.766-1.635 32 32 0 0 0-4.913-.923q-.62-.067-1.242-.106-.622-.043-1.247-.057a29.4 29.4 0 0 0-7.46.783c-1.638.385-3.256.91-4.838 1.555a37 37 0 0 0-4.631 2.292 43.556 43.556 0 0 0-6.43 4.6A33 33 0 0 0 1.155 50"/></svg>
